dist/img/icons/smiley.svg

<svg width="31" height="31" viewBox="0 0 31 31" fill="none" xmlns="http://www.w3.org/2000/svg">
<path d="M22.0146 19.041C21.7369 18.7924 21.3104 18.8166 21.063 19.0936C19.6572 20.6645 17.6301 21.5648 15.4999 21.5648C13.3703 21.5648 11.3425 20.6645 9.93673 19.0936C9.68805 18.8166 9.26281 18.7924 8.98516 19.041C8.70751 19.289 8.68459 19.7149 8.93259 19.9926C10.5938 21.8486 12.9875 22.9127 15.4999 22.9127C18.0129 22.9127 20.4066 21.8479 22.0672 19.9926C22.3152 19.7149 22.2916 19.289 22.0146 19.041Z" fill="black"/>
<path d="M15.5 0C6.95343 0 0 6.95343 0 15.5C0 24.0466 6.95343 31 15.5 31C24.0466 31 31 24.0466 31 15.5C31 6.95343 24.0466 0 15.5 0ZM15.5 29.6522C7.69609 29.6522 1.34783 23.3039 1.34783 15.5C1.34783 7.69609 7.69609 1.34783 15.5 1.34783C23.3039 1.34783 29.6522 7.69609 29.6522 15.5C29.6522 23.3039 23.3039 29.6522 15.5 29.6522Z" fill="black"/>
<path d="M20.8915 10.7822C19.0336 10.7822 17.522 12.2938 17.522 14.1518C17.522 14.5238 17.8239 14.8257 18.1959 14.8257C18.5679 14.8257 18.8698 14.5238 18.8698 14.1518C18.8698 13.0371 19.7769 12.1301 20.8915 12.1301C22.0062 12.1301 22.9133 13.0371 22.9133 14.1518C22.9133 14.5238 23.2152 14.8257 23.5872 14.8257C23.9592 14.8257 24.2611 14.5238 24.2611 14.1518C24.2611 12.2938 22.7495 10.7822 20.8915 10.7822Z" fill="black"/>
<path d="M12.1306 14.1518C12.1306 14.5238 12.4325 14.8257 12.8045 14.8257C13.1765 14.8257 13.4784 14.5238 13.4784 14.1518C13.4784 12.2938 11.9668 10.7822 10.1088 10.7822C8.25084 10.7822 6.73926 12.2938 6.73926 14.1518C6.73926 14.5238 7.04117 14.8257 7.41317 14.8257C7.78517 14.8257 8.08708 14.5238 8.08708 14.1518C8.08708 13.0371 8.99417 12.1301 10.1088 12.1301C11.2235 12.1301 12.1306 13.0371 12.1306 14.1518Z" fill="black"/>
</svg>

<svg width="31" height="31" viewBox="0 0 31 31" fill="none" xmlns="http://www.w3.org/2000/svg"><path d="M22.015 19.041a.674.674 0 0 0-.952.053 7.465 7.465 0 0 1-5.563 2.47c-2.13 0-4.158-.9-5.563-2.47a.674.674 0 1 0-1.004.899 8.816 8.816 0 0 0 6.567 2.92 8.817 8.817 0 0 0 6.567-2.92.674.674 0 0 0-.052-.952z" fill="#000"/><path d="M15.5 0C6.953 0 0 6.953 0 15.5S6.953 31 15.5 31 31 24.047 31 15.5 24.047 0 15.5 0zm0 29.652c-7.804 0-14.152-6.348-14.152-14.152 0-7.804 6.348-14.152 14.152-14.152 7.804 0 14.152 6.348 14.152 14.152 0 7.804-6.348 14.152-14.152 14.152z" fill="#000"/><path d="M20.892 10.782a3.373 3.373 0 0 0-3.37 3.37.674.674 0 0 0 1.348 0c0-1.115.907-2.022 2.021-2.022 1.115 0 2.022.907 2.022 2.022a.674.674 0 0 0 1.348 0 3.373 3.373 0 0 0-3.37-3.37zM12.13 14.152a.674.674 0 0 0 1.348 0 3.373 3.373 0 0 0-3.37-3.37 3.373 3.373 0 0 0-3.369 3.37.674.674 0 0 0 1.348 0c0-1.115.907-2.022 2.022-2.022 1.114 0 2.022.907 2.022 2.022z" fill="#000"/></svg>
